world_stage/static/flags/rect/nru.svg

<svg height="400" viewBox="0 0 600 400" width="600" xmlns="http://www.w3.org/2000/svg"><path d="m0 0h450v300h-450z" fill="#002b7f" transform="matrix(1.3333333 0 0 -1.3333333 0 400)"/><path d="m0 137.5h450v25h-450z" fill="#ffc61e" transform="matrix(1.3333333 0 0 -1.3333333 0 400)"/><path d="m0 0-6.471 25.852-18.529-19.153 7.322 25.623-25.623-7.322 19.153 18.529-25.852 6.471 25.852 6.471-19.153 18.529 25.623-7.322-7.322 25.623 18.529-19.153 6.471 25.852 6.471-25.852 18.529 19.153-7.322-25.623 25.623 7.322-19.153-18.529 25.852-6.471-25.852-6.471 19.153-18.529-25.623 7.322 7.322-25.623-18.529 19.153z" fill="#fff" transform="matrix(1.3333333 0 0 -1.3333333 160.66667 350)"/></svg>

<?xml version="1.0" encoding="UTF-8" standalone="no"?>
<!-- Created with Inkscape (http://www.inkscape.org/) -->

<svg
   version="1.1"
   id="svg1"
   width="600"
   height="400"
   viewBox="0 0 600 400"
   sodipodi:docname="nr.ai"
   xmlns:inkscape="http://www.inkscape.org/namespaces/inkscape"
   xmlns:sodipodi="http://sodipodi.sourceforge.net/DTD/sodipodi-0.dtd"
   xmlns="http://www.w3.org/2000/svg"
   xmlns:svg="http://www.w3.org/2000/svg">
  <defs
     id="defs1" />
  <sodipodi:namedview
     id="namedview1"
     pagecolor="#ffffff"
     bordercolor="#000000"
     borderopacity="0.25"
     inkscape:showpageshadow="2"
     inkscape:pageopacity="0.0"
     inkscape:pagecheckerboard="0"
     inkscape:deskcolor="#d1d1d1">
    <inkscape:page
       x="0"
       y="0"
       inkscape:label="1"
       id="page1"
       width="600"
       height="400"
       margin="0"
       bleed="0" />
  </sodipodi:namedview>
  <g
     id="layer-MC0"
     inkscape:groupmode="layer"
     inkscape:label="Layer 1">
    <path
       id="path1"
       d="M 0,0 H 450 V 300 H 0 Z"
       style="fill:#002b7f;fill-opacity:1;fill-rule:nonzero;stroke:none"
       transform="matrix(1.3333333,0,0,-1.3333333,0,400)" />
    <path
       id="path2"
       d="m 0,137.5 h 450 v 25 H 0 Z"
       style="fill:#ffc61e;fill-opacity:1;fill-rule:nonzero;stroke:none"
       transform="matrix(1.3333333,0,0,-1.3333333,0,400)" />
    <path
       id="path3"
       d="M 0,0 -6.471,25.852 -25,6.699 -17.678,32.322 -43.301,25 -24.148,43.529 -50,50 -24.148,56.471 -43.301,75 -17.678,67.678 -25,93.301 -6.471,74.148 0,100 6.471,74.148 25,93.301 17.678,67.678 43.301,75 24.148,56.471 50,50 24.148,43.529 43.301,25 17.678,32.322 25,6.699 6.471,25.852 Z"
       style="fill:#ffffff;fill-opacity:1;fill-rule:nonzero;stroke:none"
       transform="matrix(1.3333333,0,0,-1.3333333,160.66667,350)" />
  </g>
</svg>
